lib/flags/sk-slovakia.svg

<svg xmlns="http://www.w3.org/2000/svg" fill="none" aria-hidden="true" viewBox="0 0 42 30"><g id="Country=SK - Slovakia, Size=sm (36x24)" filter="url(#filter0_dd_91_25114)"><g clip-path="url(#clip0_91_25114)"><g id="flag"><mask id="mask0_91_25114" width="36" height="24" x="3" y="2" maskUnits="userSpaceOnUse" style="mask-type:alpha"><rect id="mask" width="36" height="24" x="3" y="2" fill="white"/></mask><g mask="url(#mask0_91_25114)"><g id="contents"><path id="background" fill="#3D58DB" fill-rule="evenodd" d="M3 2V26H39V2H3Z" clip-rule="evenodd"/><mask id="mask1_91_25114" width="36" height="24" x="3" y="2" maskUnits="userSpaceOnUse" style="mask-type:alpha"><path id="background_2" fill="white" fill-rule="evenodd" d="M3 2V26H39V2H3Z" clip-rule="evenodd"/></mask><g mask="url(#mask1_91_25114)"><path id="top" fill="#F7FCFF" fill-rule="evenodd" d="M3 2V10H39V2H3Z" clip-rule="evenodd"/><path id="bottom" fill="#E31D1C" fill-rule="evenodd" d="M3 18V26H39V18H3Z" clip-rule="evenodd"/><g id="mark"><path id="Path 264" fill="#E31D1C" stroke="white" d="M20.5544 8.03027L21.0509 7.97085L20.9982 7.53027H20.5544H10.138H9.67447L9.63941 7.99245L10.138 8.03027L9.6394 7.99255L9.63939 7.99276L9.63932 7.99357L9.63909 7.99665L9.6382 8.00861L9.63476 8.05492L9.62199 8.23125C9.61113 8.38372 9.59588 8.60308 9.57834 8.87115C9.54326 9.40711 9.49893 10.1387 9.46199 10.9203C9.38931 12.4579 9.34054 14.2665 9.46752 15.1147C9.71718 16.7823 10.8538 20.4572 15.1712 22.1149L15.3535 22.1849L15.5351 22.1128C19.6353 20.4831 21.0289 17.1863 21.3517 15.1177C21.5138 14.079 21.4313 12.2677 21.3184 10.7691C21.2611 10.0084 21.1943 9.30958 21.1418 8.80105C21.1156 8.54667 21.0929 8.33963 21.0768 8.19597C21.0687 8.12413 21.0623 8.06812 21.0578 8.02993L21.0527 7.98627L21.0514 7.97494L21.051 7.97198L21.0509 7.97118L21.0509 7.97096C21.0509 7.9709 21.0509 7.97085 20.5544 8.03027Z"/><mask id="mask2_91_25114" width="14" height="16" x="8" y="7" maskUnits="userSpaceOnUse" style="mask-type:alpha"><path id="Path 264_2" fill="white" stroke="white" d="M20.5544 8.03027L21.0509 7.97085L20.9982 7.53027H20.5544H10.138H9.67447L9.63941 7.99245L10.138 8.03027L9.6394 7.99255L9.63939 7.99276L9.63932 7.99357L9.63909 7.99665L9.6382 8.00861L9.63476 8.05492L9.62199 8.23125C9.61113 8.38372 9.59588 8.60308 9.57834 8.87115C9.54326 9.40711 9.49893 10.1387 9.46199 10.9203C9.38931 12.4579 9.34054 14.2665 9.46752 15.1147C9.71718 16.7823 10.8538 20.4572 15.1712 22.1149L15.3535 22.1849L15.5351 22.1128C19.6353 20.4831 21.0289 17.1863 21.3517 15.1177C21.5138 14.079 21.4313 12.2677 21.3184 10.7691C21.2611 10.0084 21.1943 9.30958 21.1418 8.80105C21.1156 8.54667 21.0929 8.33963 21.0768 8.19597C21.0687 8.12413 21.0623 8.06812 21.0578 8.02993L21.0527 7.98627L21.0514 7.97494L21.051 7.97198L21.0509 7.97118L21.0509 7.97096C21.0509 7.9709 21.0509 7.97085 20.5544 8.03027Z"/></mask><g mask="url(#mask2_91_25114)"><path id="Path 266" fill="#F7FCFF" fill-rule="evenodd" d="M14.5394 8.58984C14.5394 8.58984 14.7717 8.90446 14.8757 9.38555C14.9797 9.86663 14.9976 10.7095 14.9976 10.7095L12.7939 10.4684V11.9537L15.0469 11.6986L15.0102 13.1083C15.0102 13.1083 14.3362 13.1705 13.7834 13.1083C13.2306 13.0462 12.1416 12.786 12.1416 12.786V14.4864C12.1416 14.4864 13.248 14.1718 13.7834 14.0996C14.3188 14.0274 15.0102 14.0996 15.0102 14.0996V16.1879H15.9249V14.0996C15.9249 14.0996 16.9248 14.0223 17.5212 14.106C18.1177 14.1896 18.6834 14.4864 18.6834 14.4864V12.786C18.6834 12.786 18.1102 13.0399 17.5696 13.103C17.029 13.1662 15.9249 13.1083 15.9249 13.1083L15.9615 11.6986C15.9615 11.6986 16.7099 11.6297 17.1298 11.6804C17.5496 11.7311 18.0752 11.9537 18.0752 11.9537V10.4684C18.0752 10.4684 17.563 10.7161 17.16 10.761C16.7569 10.806 15.9123 10.7095 15.9123 10.7095C15.9123 10.7095 15.9273 9.83968 16.0139 9.41612C16.1006 8.99256 16.346 8.58984 16.346 8.58984H14.5394Z" clip-rule="evenodd"/><path id="Path 265" fill="#2E42A5" fill-rule="evenodd" d="M10.7598 18.2452C10.7598 18.2452 11.2542 17.302 12.0587 17.1226C12.8632 16.9433 13.7069 17.6839 13.7069 17.6839C13.7069 17.6839 14.222 16.1875 15.4776 16.1875C16.7332 16.1875 17.1739 17.6839 17.1739 17.6839C17.1739 17.6839 17.7096 17.1226 18.48 17.1226C19.2504 17.1226 19.9641 18.2452 19.9641 18.2452C19.9641 18.2452 17.663 21.9587 15.3619 21.9587C13.0608 21.9587 10.7598 18.2452 10.7598 18.2452Z" clip-rule="evenodd"/></g></g></g></g></g></g></g></g><defs><filter id="filter0_dd_91_25114" width="42" height="30" x="0" y="0" color-interpolation-filters="sRGB" filterUnits="userSpaceOnUse"><feFlood flood-opacity="0" result="BackgroundImageFix"/><feColorMatrix in="SourceAlpha" result="hardAlpha" values="0 0 0 0 0 0 0 0 0 0 0 0 0 0 0 0 0 0 127 0"/><feOffset dy="1"/><feGaussianBlur stdDeviation="1"/><feColorMatrix values="0 0 0 0 0.0627451 0 0 0 0 0.0941176 0 0 0 0 0.156863 0 0 0 0.06 0"/><feBlend in2="BackgroundImageFix" result="effect1_dropShadow_91_25114"/><feColorMatrix in="SourceAlpha" result="hardAlpha" values="0 0 0 0 0 0 0 0 0 0 0 0 0 0 0 0 0 0 127 0"/><feOffset dy="1"/><feGaussianBlur stdDeviation="1.5"/><feColorMatrix values="0 0 0 0 0.0627451 0 0 0 0 0.0941176 0 0 0 0 0.156863 0 0 0 0.1 0"/><feBlend in2="effect1_dropShadow_91_25114" result="effect2_dropShadow_91_25114"/><feBlend in="SourceGraphic" in2="effect2_dropShadow_91_25114" result="shape"/></filter><clipPath id="clip0_91_25114"><rect width="36" height="24" x="3" y="2" fill="white" rx="2"/></clipPath></defs></svg>

<svg xmlns="http://www.w3.org/2000/svg" fill="none" aria-hidden="true" viewBox="0 0 42 30"><g filter="url(#a)"><g clip-path="url(#b)"><mask id="c" width="36" height="24" x="3" y="2" maskUnits="userSpaceOnUse" style="mask-type:alpha"><path fill="#fff" d="M3 2h36v24H3z"/></mask><g mask="url(#c)"><path fill="#3D58DB" fill-rule="evenodd" d="M3 2v24h36V2H3Z" clip-rule="evenodd"/><mask id="d" width="36" height="24" x="3" y="2" maskUnits="userSpaceOnUse" style="mask-type:alpha"><path fill="#fff" fill-rule="evenodd" d="M3 2v24h36V2H3Z" clip-rule="evenodd"/></mask><g mask="url(#d)"><path fill="#F7FCFF" fill-rule="evenodd" d="M3 2v8h36V2H3Z" clip-rule="evenodd"/><path fill="#E31D1C" fill-rule="evenodd" d="M3 18v8h36v-8H3Z" clip-rule="evenodd"/><path fill="#E31D1C" stroke="#fff" d="m20.554 8.03.497-.06-.053-.44H9.674l-.035.462.499.038-.499-.037v.016l-.004.046-.013.176a111.923 111.923 0 0 0-.16 2.69c-.073 1.537-.121 3.346.006 4.194.25 1.667 1.386 5.342 5.703 7l.183.07.181-.072c4.1-1.63 5.494-4.927 5.817-6.995.162-1.039.08-2.85-.034-4.349a72.63 72.63 0 0 0-.26-2.74l-.005-.043-.002-.011V7.97l-.497.06Z"/><mask id="e" width="14" height="16" x="8" y="7" maskUnits="userSpaceOnUse" style="mask-type:alpha"><path fill="#fff" stroke="#fff" d="m20.554 8.03.497-.06-.053-.44H9.674l-.035.462.499.038-.499-.037v.016l-.004.046-.013.176a111.923 111.923 0 0 0-.16 2.69c-.073 1.537-.121 3.346.006 4.194.25 1.667 1.386 5.342 5.703 7l.183.07.181-.072c4.1-1.63 5.494-4.927 5.817-6.995.162-1.039.08-2.85-.034-4.349a72.63 72.63 0 0 0-.26-2.74l-.005-.043-.002-.011V7.97l-.497.06Z"/></mask><g fill-rule="evenodd" clip-rule="evenodd" mask="url(#e)"><path fill="#F7FCFF" d="M14.54 8.59s.232.314.336.796c.104.48.122 1.324.122 1.324l-2.204-.242v1.486l2.253-.255-.037 1.41s-.674.062-1.227 0c-.552-.063-1.641-.323-1.641-.323v1.7s1.106-.314 1.641-.386c.536-.073 1.227 0 1.227 0v2.088h.915V14.1s1-.078 1.596.006c.597.084 1.162.38 1.162.38v-1.7s-.573.254-1.113.317c-.541.063-1.645.005-1.645.005l.036-1.41s.749-.068 1.169-.018c.42.051.945.274.945.274v-1.486s-.512.248-.915.293c-.403.045-1.248-.051-1.248-.051s.015-.87.102-1.294c.087-.423.332-.826.332-.826h-1.807Z"/><path fill="#2E42A5" d="M10.76 18.245s.494-.943 1.299-1.122c.804-.18 1.648.56 1.648.56s.515-1.495 1.77-1.495c1.256 0 1.697 1.496 1.697 1.496s.536-.561 1.306-.561 1.484 1.122 1.484 1.122-2.301 3.714-4.602 3.714-4.602-3.714-4.602-3.714Z"/></g></g></g></g></g><defs><clipPath id="b"><rect width="36" height="24" x="3" y="2" fill="#fff" rx="2"/></clipPath><filter id="a" width="42" height="30" x="0" y="0" color-interpolation-filters="sRGB" filterUnits="userSpaceOnUse"><feFlood flood-opacity="0" result="BackgroundImageFix"/><feColorMatrix in="SourceAlpha" result="hardAlpha" values="0 0 0 0 0 0 0 0 0 0 0 0 0 0 0 0 0 0 127 0"/><feOffset dy="1"/><feGaussianBlur stdDeviation="1"/><feColorMatrix values="0 0 0 0 0.0627451 0 0 0 0 0.0941176 0 0 0 0 0.156863 0 0 0 0.06 0"/><feBlend in2="BackgroundImageFix" result="effect1_dropShadow_91_25114"/><feColorMatrix in="SourceAlpha" result="hardAlpha" values="0 0 0 0 0 0 0 0 0 0 0 0 0 0 0 0 0 0 127 0"/><feOffset dy="1"/><feGaussianBlur stdDeviation="1.5"/><feColorMatrix values="0 0 0 0 0.0627451 0 0 0 0 0.0941176 0 0 0 0 0.156863 0 0 0 0.1 0"/><feBlend in2="effect1_dropShadow_91_25114" result="effect2_dropShadow_91_25114"/><feBlend in="SourceGraphic" in2="effect2_dropShadow_91_25114" result="shape"/></filter></defs></svg>
